X:166
T: Ansingelied zum Neujahre
N: A0530A
O: Europa, Mitteleuropa, Deutschland
N: Baseler hs. Tenor 1544 - 1574.
R: Romanze, Ballade, Lied, religioeses Lied
M: 4/1
L: 1/2
K: G
G | G2G2A2G2 | c2d2c2z
B | d2e2d2B2 | c2A2G2z
G | c2B2d2A2 | G2E2D2z
D | A2A2A2B2 | c2A2G2A2 | F2G2A4 | G8

@@@ Tune index: 479
